assets/icons/qvision/import_contacts.svg

<svg xmlns="http://www.w3.org/2000/svg" enable-background="new 0 0 24 24" height="24" viewBox="0 0 24 24" width="24"><g><rect fill="none" height="24" width="24"/></g><g><g><g><path d="M17.5,4.5c-1.95,0-4.05,0.4-5.5,1.5c-1.45-1.1-3.55-1.5-5.5-1.5S2.45,4.9,1,6v14.65c0,0.65,0.73,0.45,0.75,0.45 C3.1,20.45,5.05,20,6.5,20c1.95,0,4.05,0.4,5.5,1.5c1.35-0.85,3.8-1.5,5.5-1.5c1.65,0,3.35,0.3,4.75,1.05 C22.66,21.26,23,20.86,23,20.6V6C21.51,4.88,19.37,4.5,17.5,4.5z M21,18.5c-1.1-0.35-2.3-0.5-3.5-0.5c-1.7,0-4.15,0.65-5.5,1.5V8 c1.35-0.85,3.8-1.5,5.5-1.5c1.2,0,2.4,0.15,3.5,0.5V18.5z"/></g></g></g></svg>

<svg width="24" height="24" viewBox="0 0 24 24" fill="none" xmlns="http://www.w3.org/2000/svg">
<g clip-path="url(#clip0_147_1847)">
<path d="M17.5 4.5C15.55 4.5 13.45 4.9 12 6C10.55 4.9 8.45 4.5 6.5 4.5C4.55 4.5 2.45 4.9 1 6V20.65C1 21.3 1.73 21.1 1.75 21.1C3.1 20.45 5.05 20 6.5 20C8.45 20 10.55 20.4 12 21.5C13.35 20.65 15.8 20 17.5 20C19.15 20 20.85 20.3 22.25 21.05C22.66 21.26 23 20.86 23 20.6V6C21.51 4.88 19.37 4.5 17.5 4.5ZM21 18.5C19.9 18.15 18.7 18 17.5 18C15.8 18 13.35 18.65 12 19.5V8C13.35 7.15 15.8 6.5 17.5 6.5C18.7 6.5 19.9 6.65 21 7V18.5Z" fill="#323232"/>
</g>
<defs>
<clipPath id="clip0_147_1847">
<rect width="24" height="24" fill="white"/>
</clipPath>
</defs>
</svg>
